X: 99
T: A oanzigs Hendl
R: zwiefacher
M: 23/44
L: 1/8
K: G
|: [B2G2] \
| "D7"([A2F2][c2A2]) | "G"([B2G2] [dB])z [B2G2] \
| "D7"([A2F2][c2A2]) | "G"[B2G2] z2 [B2G2] \
| "D7"([A2F2][c2A2]) | "G"([B2G2] [dB])z [d2B2] \
| "D7"([c2A2][F2D2]) | "G"[G2G2] z2 :|
|: [d2B2] \
| "D7"([c2A2][A2F2]) | "G"([B2G2] [GG])z [d2B2] \
| "D7"([c2A2][A2F2]) | "G"[B2G2] z2 [d2B2] \
| "D7"([c2A2][A2F2]) | "G"([B2G2] [GG])z [B2G2] \
| "D7"([A2F2][F2D2]) | "G"[G2G2] z2 :|
%%sep 2 1 500
